svg/OSM-icons/tourism #734a08 °ffffff !label=entourism,deTourismus/30026;tourism=picnic_site;!name=;!fireplace=;!label=enpicnic site,dePicknick- Platz.svg

<svg xmlns="http://www.w3.org/2000/svg" viewBox="0 0 580 580" enable-background="new 0 0 580 580"><path fill="#111" stroke="#eee" stroke-width="3.408" d="m66.28 1.768c-41.34 0-64.57 21.371-64.57 65.04v450.12c0 40.844 20.895 62.23 62.19 62.23h452.02c41.31 0 62.23-20.315 62.23-62.23v-450.12c0-42.602-20.923-65.04-63.52-65.04-.003 0-448.5-.143-448.35 0z"/><path fill="#fff" d="m212.75 280.31l47.578-116.9h48.761l47.579 116.9h-143.92m155.09-116.9h79.29v-43.47h-314.28v43.47h78.72l-47.579 116.9h-116.31v43.46h98.69l-54.624 136.3h53.46l55.22-136.3h178.57l55.22 136.3h54.05l-55.21-136.3h99.28v-43.45h-116.9l-47.578-116.9"/></svg>

<?xml version="1.0" encoding="utf-8"?>
<!-- Generator: Adobe Illustrator 15.0.0, SVG Export Plug-In . SVG Version: 6.00 Build 0)  -->
<!DOCTYPE svg PUBLIC "-//W3C//DTD SVG 1.1//EN" "http://www.w3.org/Graphics/SVG/1.1/DTD/svg11.dtd">
<svg version="1.1" xmlns="http://www.w3.org/2000/svg" xmlns:xlink="http://www.w3.org/1999/xlink" x="0px" y="0px" width="580px"
	 height="580px" viewBox="0 0 580 580" enable-background="new 0 0 580 580" xml:space="preserve">
<g id="Layer_2_1_">
	<g id="Layer_2">
		<g id="g1327">
			<path id="path1329" fill="#111111" stroke="#EEEEEE" stroke-width="3.408" d="M66.275,1.768
				c-41.335,0-64.571,21.371-64.571,65.036v450.123c0,40.844,20.895,62.229,62.192,62.229h452.024
				c41.307,0,62.229-20.315,62.229-62.229V66.804c0-42.602-20.923-65.036-63.521-65.036C514.625,1.768,66.133,1.625,66.275,1.768z"
				/>
		</g>
	</g>
</g>
<g id="Layer_1">
	<path id="flowRoot3192" fill="#FFFFFF" d="M212.752,280.31l47.578-116.902h48.761L356.67,280.31H212.752z M367.84,163.407h79.291
		v-43.473h-314.28v43.473h78.718L163.99,280.31H47.68v43.456h98.688L91.744,460.064h53.459l55.215-136.299H378.99l55.215,136.299
		h54.051l-55.215-136.299h99.279V280.31H415.418L367.84,163.407z"/>
</g>
</svg>
